X: 4582
T: Bouchard's Waltz Quadrille
R: waltz
M: 3/4
K: Dmajor
|:d2 f2 d2|c2 f2 c2|B3 c B2|B4 A2|d2 f2 d2|c2 f2 c2|B6-|B4 A2|
e2 g2 e2|d2 g2 d2|c2 g2 c2|c4 B2|A3 B A2|A2 B2 c2|1 d2 c2 B2|(3ABA F2 A2:|2 d6-|d2 A2 G2||
F4 D2|F2 A2 d2|f6|f4 c2|e2 d2 d2|d2 A2 F2|G6-|G4 F2|
E4 E2|E2 G2 B2|e6-|e4 B2|A4 A2|A2 B2 c2|d2 (3cdc B2|(3ABA F2 E2|
D6|F2 A2 d2|f6-|f4 c2|e2 d2 d2|d2 A2 f2|g6-|g4 f2|
e3 f e2|e4 d2|c2 e2 a2|c4 B2|A3 c e2|a2 (3efe c2|d6-|d6||

